X: 06083
T: ROGER'S REEL
C: Bob McQuillen 26 Aug 81
B: Bob's Note Book 6 #83
%R: reel
Z: 2021 John Chambers <jc:trillian.mit.edu>
M: C
L: 1/8
K: D
DF \
| A2AB AFDB, | A,2A,B, D2FA | B2Bd edfe | d2B2 B2de |\
| f2df edB2 | ABAF EDB,2 | DEFA BAFD | E2D2 D2 :|
|: AB \
| d2AF EDFA | B2Bd BABd | e2ed efdB | F2B2 B2AB |\
| d2df edBA | B2Bd AFAB | dfed BADE | F2D2 D2 :|
%%begintext align
%% It sure is
%% fun to hear Roger Treat when it's his
%% turn to fiddle at the Monday Night dance.
%% (Note - for info on this dance, call 603-563-8425)
%% [P.S. - That's while I'm still around!!]
%%endtext

%%sep 1 1 500

%%sep 1 1 500

